images/item-food.svg

<svg width="74" height="70" viewBox="0 0 74 70" fill="none" xmlns="http://www.w3.org/2000/svg">
<path d="M69.9 46.7H59.3H14.6H4.1C1.8 46.7 0 48.6 0 51V54.5C0 56.9 1.9 58.7999 4.1 58.7999H5V59.9C5 65.4 9.3 70 14.6 70H59.2C64.5 70 68.8 65.5 68.8 59.9V58.7999H69.7C72 58.7999 73.8 56.9 73.8 54.5V51C74 48.7 72.1 46.7 69.9 46.7ZM66 59.9C66 63.8 63 66.9 59.3 66.9H14.6C10.9 66.9 7.9 63.7 7.9 59.9V58.7999H66V59.9ZM71.1 54.5C71.1 55.2 70.5 55.7999 69.9 55.7999H68.9H66H8H5H4C3.3 55.7999 2.8 55.2 2.8 54.5V51C2.8 50.3 3.4 49.7 4 49.7H7.7H14.6H59.2H66.1H69.8C70.5 49.7 71 50.3 71 51C71.1 51 71.1 54.5 71.1 54.5Z" fill="#81B3D2"/>
<path d="M15.6 38.4L21 42.5L26.3 38.4L31.6 42.5L36.9 38.4L42.3 42.5L47.6 38.4L52.9 42.5L58.3 38.4L63.6 42.5L69.8 37.8L68.1 35.3L63.6 38.7L58.3 34.6L52.9 38.7L47.6 34.6L42.3 38.7L36.9 34.6L31.6 38.7L26.3 34.6L21 38.7L15.6 34.6L10.3 38.7L5.79998 35.3L4.09998 37.8L10.3 42.5L15.6 38.4Z" fill="#81B3D2"/>
<path d="M8 31.5H65.9H68.8C68.8 30.9 68.9 30.3 68.9 29.6C68.9 29.2 68.9 28.8 68.9 28.4C68.2 12.7 54.2 0 37 0C19.7 0 5.7 12.7 5 28.5C5 28.9 5 29.3 5 29.7C5 30.3 5 31 5.1 31.6H8V31.5ZM37 3C52.6 3 65.4 14.3 66 28.5H8C8.6 14.4 21.4 3 37 3Z" fill="#81B3D2"/>
<path d="M37 17.3C38.0493 17.3 38.9 16.4046 38.9 15.3C38.9 14.1955 38.0493 13.3 37 13.3C35.9506 13.3 35.1 14.1955 35.1 15.3C35.1 16.4046 35.9506 17.3 37 17.3Z" fill="#81B3D2"/>
<path d="M29.2 12.2C30.2493 12.2 31.1 11.3045 31.1 10.2C31.1 9.09538 30.2493 8.19995 29.2 8.19995C28.1506 8.19995 27.3 9.09538 27.3 10.2C27.3 11.3045 28.1506 12.2 29.2 12.2Z" fill="#81B3D2"/>
<path d="M44.7 12.2C45.7493 12.2 46.6 11.3045 46.6 10.2C46.6 9.09538 45.7493 8.19995 44.7 8.19995C43.6506 8.19995 42.8 9.09538 42.8 10.2C42.8 11.3045 43.6506 12.2 44.7 12.2Z" fill="#81B3D2"/>
</svg>

<svg width="74" height="70" fill="none" xmlns="http://www.w3.org/2000/svg"><path d="M69.9 46.7H4.1A4.2 4.2 0 0 0 0 51v3.5c0 2.4 1.9 4.3 4.1 4.3H5v1.1A10 10 0 0 0 14.6 70h44.6c5.3 0 9.6-4.5 9.6-10.1v-1.1h.9c2.3 0 4.1-1.9 4.1-4.3V51a4 4 0 0 0-3.9-4.3ZM66 59.9c0 3.9-3 7-6.7 7H14.6a6.9 6.9 0 0 1-6.7-7v-1.1H66v1.1Zm5.1-5.4c0 .7-.6 1.3-1.2 1.3H4c-.7 0-1.2-.6-1.2-1.3V51c0-.7.6-1.3 1.2-1.3h65.8c.7 0 1.2.6 1.2 1.3l.1 3.5ZM15.6 38.4l5.4 4.1 5.3-4.1 5.3 4.1 5.3-4.1 5.4 4.1 5.3-4.1 5.3 4.1 5.4-4.1 5.3 4.1 6.2-4.7-1.7-2.5-4.5 3.4-5.3-4.1-5.4 4.1-5.3-4.1-5.3 4.1-5.4-4.1-5.3 4.1-5.3-4.1-5.3 4.1-5.4-4.1-5.3 4.1-4.5-3.4-1.7 2.5 6.2 4.7 5.3-4.1ZM8 31.5h60.8l.1-1.9v-1.2C68.2 12.7 54.2 0 37 0 19.7 0 5.7 12.7 5 28.5v1.2l.1 1.9H8v-.1ZM37 3c15.6 0 28.4 11.3 29 25.5H8C8.6 14.4 21.4 3 37 3Z" fill="#81B3D2"/><path d="M37 17.3a2 2 0 0 0 1.9-2 2 2 0 0 0-1.9-2 2 2 0 0 0-1.9 2c0 1.1.9 2 1.9 2ZM29.2 12.2a2 2 0 0 0 1.9-2 2 2 0 0 0-1.9-2 2 2 0 0 0-1.9 2c0 1.1.9 2 1.9 2ZM44.7 12.2a2 2 0 0 0 1.9-2 2 2 0 0 0-1.9-2 2 2 0 0 0-1.9 2c0 1.1.9 2 1.9 2Z" fill="#81B3D2"/></svg>
